public/svgs/spectrum/museum.svg

<svg width="1em" height="1em" viewBox="0 0 30 30" fill="current" xmlns="http://www.w3.org/2000/svg">
    <path
        d="M24.9912 15.2831C25.7699 15.7282 26.2509 16.5571 26.251 17.454V24.7528C26.251 26.1334 25.1315 27.2526 23.751 27.2528H17.501V11.0028L24.9912 15.2831ZM13.1426 3.28311C13.9757 2.82025 15 3.42278 15 4.37589V27.2509H6.25C4.86932 27.2509 3.75005 26.1316 3.75 24.7509V9.97257C3.75 9.06466 4.24249 8.22795 5.03613 7.78702L13.1426 3.28311ZM19.376 21.0028H23.126C23.8161 21.0026 24.376 20.443 24.376 19.7528C24.3757 19.0629 23.8159 18.5031 23.126 18.5028H19.376V21.0028ZM6.875 18.5028C6.18481 18.5028 5.62526 19.0617 5.625 19.7519C5.62505 20.4422 6.18467 21.0019 6.875 21.0019H13.125V18.5028H6.875ZM6.875 13.5028C6.18464 13.5028 5.625 14.0625 5.625 14.7528C5.62505 15.4432 6.18467 16.0028 6.875 16.0028H13.125V13.5028H6.875Z"
        fill="current" />
</svg>

<svg xmlns="http://www.w3.org/2000/svg" width="1em" height="1em" fill="current" viewBox="0 0 30 30"><path d="M24.991 15.283a2.5 2.5 0 0 1 1.26 2.171v7.299a2.5 2.5 0 0 1-2.5 2.5h-6.25v-16.25zm-11.848-12A1.25 1.25 0 0 1 15 4.376V27.25H6.25a2.5 2.5 0 0 1-2.5-2.5V9.973a2.5 2.5 0 0 1 1.286-2.186zm6.233 17.72h3.75a1.25 1.25 0 0 0 0-2.5h-3.75zm-12.501-2.5a1.25 1.25 0 1 0 0 2.499h6.25v-2.5zm0-5a1.25 1.25 0 0 0 0 2.5h6.25v-2.5z"/></svg>
